X: 36783
T: Shepherd's Wife, The
R: waltz
M: 3/4
K: Eminor
|:D2|G4 A2|B4 c2|d4 g2|g2 f2 d2|
e3 f g2|d3 c B2|A3 B G2|F3 E D2|
G4 A2|B4 c2|d4 g2|g2 f2 d2|
e3 f g2|a3 g f2|g6|g4:|
|:ga|b4 b2|a3 g f2|g3 a g2|f3 e d2|
e3 f g2|d3 c B2|A3 B G2|F3 E D2|
b4 b2|a3 g f2|g3 a g2|f3 e d2|
e3 f g2|a3 g f2|g6|g4:|

